!!!COM: Palestrina, Giovanni Perluigi da
!!!OPR: Missa Ecce ego Joannes
!!!OMD: Credo
!!!OTL: Crucifixus
**kern	**kern	**kern	**kern
*Itenor	*Icalto	*Icalto	*Icant
!Tenor	!Altus 2	!Altus 1	!Cantus
*clefGv2	*clefG2	*clefG2	*clefG2
*k[]	*k[]	*k[]	*k[]
*G:mix	*G:mix	*G:mix	*G:mix
*M4/2	*M4/2	*M4/2	*M4/2
=70	=70	=70	=70
0r	0r	0d	0dd
=71	=71	=71	=71
0r	0r	1g	1b
.	.	1a	1cc
=72	=72	=72	=72
0r	0r	1b	1dd
.	.	2.cc	2.ee
.	.	4cc	4ee
=73	=73	=73	=73
0r	0r	2cc	2ee
.	.	2b	2dd
.	.	2.a	2ff
.	.	.	[2ee
.	.	4g	.
=74	=74	=74	=74
0r	0r	4e	2ee]
.	.	4f	.
.	.	1g	4dd
.	.	.	4cc
.	.	.	2b
.	.	2f	[2dd
=75	=75	=75	=75
0G	0g	2.e	2dd]
.	.	.	1cc
.	.	8d	.
.	.	8c	.
.	.	1d	.
.	.	.	2b
=76	=76	=76	=76
1c	1e	1c	2.cc
.	.	.	4b
1d	1f	1r	1a
=77	=77	=77	=77
1e	1g	0r	1r
2.f	2.a	.	2.cc
4f	4a	.	4cc
=78	=78	=78	=78
2f	2a	2r	2cc
2e	2g	1g	2cc
2.d	2b-	.	[1dd
.	[2a	2f	.
4c	.	.	.
=79	=79	=79	=79
2B-	4a]	2d	2dd]
.	4g	.	.
4A	1g	2e	4cc
4G	.	.	4b
1A	.	1c	1cc
.	2f#	.	.
=80	=80	=80	=80
0G	2g	1d	2b
.	2d	.	2dd
.	2.g	1r	2.b
.	4a	.	4cc
=81	=81	=81	=81
1r	2b	1r	2dd
.	2cc	.	2ee
2r	1b	2r	4dd
.	.	.	8ee
.	.	.	8ff
2G	.	2g	[2gg
=82	=82	=82	=82
2.c	2g	2.e	4gg]
.	.	.	4ff
.	2cc	.	1ee
4d	.	4f	.
2e	2b	2g	.
2f	[2a	2a	2dd
=83	=83	=83	=83
1e	2a]	1b	1ee
.	2g#	.	.
2A	1a	2cc	2r
[2a	.	[2cc	[2ee
=84	=84	=84	=84
2a]	0r	2cc]	2ee]
2g	.	2b	2ee
2f	.	2a	2dd
2e	.	2g	2ee
=85	=85	=85	=85
2f	2r	2a	2cc
2d	1a	2f	2dd
1c	.	1cc	2ee
.	2g	.	2ee
=86	=86	=86	=86
2d	2f	2.a	2dd
2c#	2e	.	2.ee
.	.	4a	.
2d	2f	2a	.
.	.	.	4dd
2B-	2d	2g	[2dd
=87	=87	=87	=87
1A	1e	0a	2dd]
.	.	.	2cc#
1d	1f#	.	2dd
.	.	.	2a
=88	=88	=88	=88
2r	1g	2r	2.dd
2G	.	2b	.
.	.	.	4dd
2.g	1r	2.b	2dd
.	.	.	2ee
4g	.	4b	.
=89	=89	=89	=89
2g	0r	2b	1.dd
2f#	.	2a	.
2g	.	2b	.
2e	.	2g	2cc
=90	=90	=90	=90
2f	1r	2a	1dd
2.g	.	2b	.
.	2r	2.e	2.gg
4f	.	.	.
4e	2g	.	.
4d	.	4f	4ff
=91	=91	=91	=91
1c	2.cc	0g	2.ee
.	4cc	.	8dd
.	.	.	8cc
1G	2cc	.	1dd
.	2b	.	.
=92	=92	=92	=92
0r	2cc	0r	1ee
.	2a	.	.
.	2b	.	2.gg
.	[2cc	.	.
.	.	.	4ff
=93	=93	=93	=93
0r	4cc]	0r	4ee
.	4b	.	4dd
.	4a	.	4cc
.	4g	.	4b
.	1f	.	4a
.	.	.	4g
.	.	.	2a
=94	=94	=94	=94
1c	2e	2r	2g
.	2e	2g	2cc
1F	1a	1f	1cc
=95	=95	=95	=95
2c	2g	2e	2cc
2G	2g	2d	2b
4A	[1e	4c	1cc
4B	.	4d	.
4c	.	4e	.
4d	.	4f	.
=96	=96	=96	=96
4e	1e]	4g	2.b
4f	.	4a	.
1g	.	4b	.
.	.	4g	4cc
.	1d	1a	1dd
2f#	.	.	.
=97	=97	=97	=97
1g	0r	2b	2r
.	.	2b	2g
1r	.	2cc	2a
.	.	2g	2b
=98	=98	=98	=98
0r	0r	2a	2cc
.	.	2b	2dd
.	.	[1cc	4ee
.	.	.	4dd
.	.	.	4ee
.	.	.	4ff
=99	=99	=99	=99
1e	0r	2cc]	4gg
.	.	.	4ff
.	.	2b	4ee
.	.	.	4dd
2f	.	2a	2.cc
2c	.	2g	.
.	.	.	8dd
.	.	.	8ee
=100	=100	=100	=100
2d	0r	8f	2ff
.	.	8g	.
.	.	8a	.
.	.	8b	.
2e	.	1cc	2ee
2f	.	.	1dd
2g	.	2b	.
=101	=101	=101	=101
4c	2r	1cc	2r
4d	.	.	.
4e	2cc	.	2ee
4f	.	.	.
1g	2b	1r	2dd
.	2g	.	2b
=102	=102	=102	=102
2r	2.a	0r	2.cc
2f	.	.	.
.	4f	.	4a
2e	2g	.	2b
2c	[2a	.	[2cc
=103	=103	=103	=103
2.e	4a]	0r	4cc]
.	4g	.	4b
.	1g	.	4b
4e	.	.	8a
.	.	.	8g
1d	.	.	1a
.	2f#	.	.
=104	=104	=104	=104
2r	1g	2r	4g
.	.	.	4a
2e	.	2g	4b
.	.	.	4cc
2d	2r	2f	1dd
2B	2g	2d	.
=105	=105	=105	=105
2.c	2.g	2.e	0r
4A	4f	4c	.
2B	2g	2d	.
[2c	[2a	[2e	.
=106	=106	=106	=106
4c]	4a]	4e]	0r
4B	4g	4d	.
4B	4g	1g	.
8A	8a	.	.
8G	8b	.	.
1A	1cc	.	.
.	.	2f#	.
=107	=107	=107	=107
1G	2b	1g	2r
.	2b	.	2dd
1r	2.cc	1r	2.ee
.	4b	.	4dd
=108	=108	=108	=108
1r	2a	0r	2cc
.	2g	.	2b
2r	2e	.	2cc
2d	2f#	.	2a
=109	=109	=109	=109
2.e	1g	2r	1g
.	.	2g	.
4d	.	.	.
2c	1r	2a	1r
2B	.	2g	.
=110	=110	=110	=110
2c	1r	2e	1r
2A	.	2f#	.
1G	2r	2g	2r
.	2b	2g	2dd
=111	=111	=111	=111
0r	2.cc	1c	2.ee
.	4b	.	4dd
.	2a	1r	2cc
.	2g	.	2b
=112	=112	=112	=112
2r	2e	2r	2cc
2d	2f#	2a	2a
2.e	2.g	2.cc	1g
4d	4f	4b	.
=113	=113	=113	=113
2c	2e	2a	1r
2B	2d	2g	.
2c	2e	2g	2r
2A	2c	2f#	[2cc
=114	=114	=114	=114
1G	2d	0g	2cc]
.	1d	.	4b
.	.	.	4a
1G	.	.	1b
.	2e	.	.
=115	=115	=115	=115
2A	2e	1c	4cc
.	.	.	4b
2A	1f	.	4a
.	.	.	4g
2B-	.	2d	2f
2B-	4e	2d	2g
.	4d	.	.
=116	=116	=116	=116
0A	2c#	2e	1.a
.	1d	2f	.
.	.	1e	.
.	2c#	.	2a
=117	=117	=117	=117
1r	1d	1f#	1a
[1d	[1a	[1f#	[1dd
=118	=118	=118	=118
2d]	2a]	2f#]	2dd]
2d	2b	2f#	2dd
1c	1cc	1g	1ee
=119	=119	=119	=119
1G	2b	2g	2dd
.	2b	2g	2dd
1r	2cc	2c	2ee
.	2a	2d	2ff
=120	=120	=120	=120
0r	1g	4e	4gg
.	.	4d	4ff
.	.	4c	4ee
.	.	4d	4dd
.	1g	4e	4cc
.	.	4f	4dd
.	.	4g	4b
.	.	4e	4cc
=121	=121	=121	=121
1r	1r	4f	4a
.	.	4d	4b
.	.	2e	1cc
1G	2r	1d	.
.	2g	.	2b
=122	=122	=122	=122
2A	2c	0r	2cc
2B	2d	.	4b
.	.	.	4a
4c	4e	.	1g
4d	4d	.	.
4e	4c	.	.
4d	4d	.	.
=123	=123	=123	=123
4c	4e	2r	0r
4d	4f	.	.
4B	4g	2g	.
4c	4e	.	.
2A	2f#	2a	.
2G	[2g	2b	.
=124	=124	=124	=124
1A	2g]	1.cc	1r
.	2f#	.	.
1G	2g	.	2r
.	2g	2b	2dd
=125	=125	=125	=125
1r	2c	1a	2ee
.	2d	.	2ff
2r	4e	1g	4gg
.	4f	.	4ff
2G	4g	.	4ee
.	4f	.	4dd
=126	=126	=126	=126
2A	4e	2r	2cc
.	4f	.	.
2B	2d	1g	2dd
4c	2c	.	4ee
4B	.	.	4dd
4A	2e	[2a	4cc
4G	.	.	4b
=127	=127	=127	=127
2F	2f	2a]	2a
2G	2d	1g	2b
1A	1c	.	1cc
.	.	2f#	.
=128	=128	=128	=128
0G	0d	0g	0b
*-	*-	*-	*-
!!!CDT: 1525/^1526/-1594/2/2
!!!OCY: Italia
!!!AGN: Mass (Parody)
!!!AST: renaissance, vocal
!!!ASW: Motet (Unidentified)
!!!PWK: Masses, Book 12
!!!RNB: Cadence finals: D
!!!YOR: Le Opere Complete, v. 29, p. 197
!!!YOO: Rome, Italy: Fratelli Scalera
!!!END: 1992//
!!!EED: John Miller
!!!YEC: Copyright 2000, John Miller
!!!YEN: United States of America
!!!YEM: Rights to all derivative electronic formats reserved.
!!!YEM: Refer to licensing agreement for further details.
!!!YEM: This file must be accompanied by the licensing agreement.
!!!YEM: A copy of the licensing agreement may be found at http://www.music-cog.ohio-state.edu/HumdrumDatabases/Palestrina/license.txt
!!!EMD: converted to Humdrum by Bret Aarden
